X: 8324
T: Cosmic Joe
R: reel
M: 4/4
K: Dminor
D2AD cDAD|zABA GFEF|D2AD cDAD|G3B AGEF|
D2AD cDAD|zABA GFEC|B,DFG A2CD|EGAB AGEF:|
DFAB AFDF|ABAF D2EF|E2ED EG (3GGG|c=Bcd cAGE|
DFAB AFDF|ABAF D2EF|EFAF EFAF|EFAF EFAF|
DFAB AFDF|ABAF D2EF|E2ED EG (3GGG|c=Bcd c_BGB|
AF (3FFF GFEG|FD (3DDD EDCA,|B,DFG A2CD|EGAB AGEF||

